X:121
T:Light Cavalry Overature
S:Jim Coon to CoMandoList TOW
R:jig
M:6/8
L:1/8
K:G
GA|:"G"B2B BGA|B2B BGA|B2B BAB|"C"e3 "G"d3|\
"D7"cDD D2c|!
"G"BDD D2B|1"A7"ABA GFE|\
"D7"A3- AGA:|2"Am"ABA "D7"E2F|"G"G3-G ef|!
|:"G"g3 "C"g3|"G"gfe d^cd|"D7"e2A A^GA|"D7"B2A F2D|!
"G"g3"C"g3|"G"gfe d^cd|"Am"eAB "D7"cBA|1"G"G3-Gz2:|2"G"G3-G|
